assets/images/Logo.svg

<svg width="93" height="40" viewBox="0 0 93 40" fill="none" xmlns="http://www.w3.org/2000/svg">
<path d="M84.3515 17.0838L77.8697 13.0723C77.6012 12.8995 77.2369 12.8995 76.9684 13.0723L70.4866 17.0838C69.3743 17.7748 67.9552 16.9686 67.9552 15.6635V7.73639C67.9552 6.81509 68.7031 6.06653 69.6236 6.06653H85.2337C86.1542 6.06653 86.9021 6.81509 86.9021 7.73639V15.6635C86.8829 16.9686 85.4638 17.7748 84.3515 17.0838Z" fill="#FFC306"/>
<path d="M78.4258 21.0378C77.8696 21.5752 76.9875 21.5752 76.4314 21.0378C74.8013 19.5022 71.6755 18.3314 67.9743 18.3314V18.5809V23.3794V24.0704C71.6179 24.0704 74.6863 25.2028 76.3355 26.6999C76.9683 27.2758 77.8888 27.2758 78.5217 26.6999C80.1709 25.2028 83.2584 24.0704 86.8828 24.0704V23.3794V18.5809V18.3314C83.1817 18.3314 80.0558 19.5022 78.4258 21.0378Z" fill="#4A45E2"/>
<path d="M78.5217 28.5617C77.8888 29.1375 76.9683 29.1375 76.3355 28.5617C74.6863 27.0646 71.5988 25.9321 67.9743 25.9321V26.1816V27.6596V29.1951C67.9743 30.0396 68.6263 30.7306 69.4701 30.7882C72.4425 31.0377 74.9164 32.055 76.3547 33.341C76.9875 33.9168 77.908 33.9168 78.5408 33.341C79.9599 32.055 82.4338 31.0377 85.4254 30.7882C86.2692 30.7114 86.9212 30.0204 86.9212 29.1951V27.6596V26.1816V25.9321C83.2392 25.9321 80.1709 27.0646 78.5217 28.5617Z" fill="#5BBFD6"/>
<path d="M33.6091 14.819C34.3762 14.819 34.9707 14.224 34.9707 13.4754C34.9707 12.7077 34.357 12.1318 33.6091 12.1318C32.842 12.1318 32.2859 12.7268 32.2859 13.4754C32.2859 14.2432 32.842 14.819 33.6091 14.819Z" fill="#002863"/>
<path d="M29.8118 14.819C30.5789 14.819 31.1542 14.224 31.1542 13.4754C31.1542 12.7077 30.5597 12.1318 29.8118 12.1318C29.0448 12.1318 28.4886 12.7268 28.4886 13.4754C28.4886 14.2432 29.0448 14.819 29.8118 14.819Z" fill="#002863"/>
<path d="M31.6339 16.0665C28.7957 16.0665 26.4369 18.0626 26.4369 20.9225C26.4369 21.9014 26.8588 23.1682 27.53 23.7248H24.4042H23.7521H15.0458H11.4789C9.90634 23.7248 8.64066 22.5732 8.64066 21.1528V18.8112V16.0281H6.24353V19.7517H6.30106V21.172C6.30106 23.7632 8.62148 25.8553 11.498 25.8553H15.065V25.8745H23.7521H24.4042H36.7925V21.172C36.7925 18.1202 34.7406 16.0665 31.6339 16.0665ZM34.3378 23.7248H31.5764C30.0997 23.7248 28.9299 22.5156 28.9299 20.9417C28.9299 19.3678 30.0038 18.197 31.6531 18.197C33.6283 18.197 34.3378 19.6749 34.3378 21.4983V23.7248Z" fill="#002863"/>
<path d="M39.1897 9.96288V25.8746H41.6444V9.02238C41.4909 8.96479 41.0115 8.75366 40.4746 8.75366C39.6691 8.75366 39.1897 9.15673 39.1897 9.96288Z" fill="#002863"/>
<path d="M47.1671 17.3525V27.007C47.1671 28.5809 46.2083 28.9264 45.2686 28.9264C44.5974 28.9264 43.9454 28.7728 43.6002 28.6001L42.9673 30.4619C43.3125 30.6346 44.3673 30.9993 45.5371 30.9993C47.6274 30.9993 49.6218 30.0588 49.6218 26.7575V16.412C49.4683 16.3544 49.104 16.1816 48.5095 16.1816C47.6657 16.1816 47.1671 16.5463 47.1671 17.3525Z" fill="#002863"/>
<path d="M56.9473 16.0665C54.0132 16.0665 51.7887 18.2162 51.7887 21.0185C51.7887 24.2431 54.0324 25.8746 57.3117 25.8746H59.6896V26.2009C59.6321 28.3698 58.3664 29.0416 56.9281 29.0416C55.9885 29.0416 55.2022 28.8112 54.7803 28.5617C54.5502 29.1951 54.3201 29.8093 54.1283 30.4811C54.7228 30.8074 55.835 31.0953 57.0624 31.0953C60.2649 31.0953 62.1443 29.4446 62.1443 25.0109V22.1702C62.1443 18.3698 60.706 16.0665 56.9473 16.0665ZM59.6896 23.7249H57.2733C55.4323 23.7249 54.3009 22.8036 54.3009 21.0569C54.3009 19.4255 55.3364 18.2162 56.9281 18.2162C58.8458 18.2162 59.6896 19.4063 59.6896 22.1318V23.7249Z" fill="#002863"/>
<path d="M50.9071 12.4389H49.4113C49.0853 12.4389 48.8168 12.3238 48.6059 12.0934C48.3566 12.343 48.0689 12.4965 47.6087 12.4965C47.1101 12.4965 46.2855 12.3238 46.2855 11.1721V9.98211C46.2855 9.67501 46.5156 9.55984 46.7841 9.55984C46.9758 9.55984 47.1101 9.61742 47.1868 9.63662V11.1913C47.1868 11.4984 47.3977 11.6904 47.6662 11.6904C47.9347 11.6904 48.1456 11.4984 48.1456 11.2297V9.98211C48.1456 9.6942 48.3182 9.55984 48.6251 9.55984C48.8168 9.55984 48.9319 9.61742 49.047 9.63662V11.1721C49.047 11.4408 49.1428 11.6136 49.4688 11.6136H50.0058V9.96291C50.0058 9.67501 50.1592 9.54065 50.4661 9.54065C50.6578 9.54065 50.7921 9.59823 50.9071 9.61742V12.4389Z" fill="#002863"/>
</svg>

<svg xmlns="http://www.w3.org/2000/svg" width="93" height="40" fill="none"><path fill="#FFC306" d="m84.352 17.084-6.482-4.012a.848.848 0 0 0-.902 0l-6.481 4.012c-1.113.69-2.532-.115-2.532-1.42V7.736c0-.92.748-1.67 1.669-1.67h15.61c.92 0 1.668.75 1.668 1.67v7.928c-.02 1.305-1.438 2.11-2.55 1.42Z"/><path fill="#4A45E2" d="M78.426 21.038a1.435 1.435 0 0 1-1.995 0c-1.63-1.536-4.755-2.707-8.457-2.707v5.739c3.644 0 6.712 1.133 8.361 2.63a1.6 1.6 0 0 0 2.187 0c1.649-1.497 4.736-2.63 8.36-2.63v-5.739c-3.7 0-6.826 1.171-8.456 2.707Z"/><path fill="#5BBFD6" d="M78.522 28.562a1.6 1.6 0 0 1-2.187 0c-1.649-1.497-4.736-2.63-8.36-2.63v3.263c0 .845.651 1.536 1.495 1.593 2.972.25 5.446 1.267 6.885 2.553a1.6 1.6 0 0 0 2.186 0c1.419-1.286 3.893-2.303 6.884-2.553.844-.077 1.496-.768 1.496-1.593v-3.263c-3.682 0-6.75 1.133-8.4 2.63Z"/><path fill="#002863" d="M33.61 14.819a1.34 1.34 0 0 0 1.36-1.344c0-.767-.613-1.343-1.36-1.343-.768 0-1.324.595-1.324 1.343 0 .768.556 1.344 1.323 1.344ZM29.812 14.819c.767 0 1.342-.595 1.342-1.344 0-.767-.594-1.343-1.342-1.343-.767 0-1.323.595-1.323 1.343 0 .768.556 1.344 1.323 1.344ZM31.634 16.067c-2.838 0-5.197 1.996-5.197 4.855 0 .98.422 2.246 1.093 2.803H11.479c-1.573 0-2.838-1.152-2.838-2.572v-5.125H6.244v3.724H6.3v1.42c0 2.591 2.32 4.683 5.197 4.683h3.567v.02H36.792v-4.703c0-3.052-2.051-5.105-5.158-5.105Zm2.704 7.658h-2.762c-1.476 0-2.646-1.21-2.646-2.783 0-1.574 1.074-2.745 2.723-2.745 1.975 0 2.685 1.478 2.685 3.301v2.227ZM39.19 9.963v15.912h2.454V9.022c-.153-.057-.633-.268-1.17-.268-.805 0-1.284.403-1.284 1.209ZM47.167 17.352v9.655c0 1.574-.959 1.92-1.898 1.92-.672 0-1.324-.154-1.669-.327l-.633 1.862c.346.173 1.4.537 2.57.537 2.09 0 4.085-.94 4.085-4.241V16.412c-.154-.058-.518-.23-1.112-.23-.844 0-1.343.364-1.343 1.17ZM56.947 16.067c-2.934 0-5.158 2.15-5.158 4.951 0 3.225 2.243 4.857 5.523 4.857h2.378v.326c-.058 2.169-1.324 2.84-2.762 2.84-.94 0-1.726-.23-2.148-.48-.23.634-.46 1.248-.652 1.92.595.326 1.707.614 2.934.614 3.203 0 5.082-1.65 5.082-6.084v-2.84c0-3.801-1.438-6.104-5.197-6.104Zm2.743 7.658h-2.417c-1.84 0-2.972-.921-2.972-2.668 0-1.631 1.035-2.84 2.627-2.84 1.918 0 2.762 1.19 2.762 3.915v1.593ZM50.907 12.439h-1.496c-.326 0-.594-.115-.805-.346-.25.25-.537.403-.997.403-.499 0-1.324-.172-1.324-1.324v-1.19c0-.307.23-.422.5-.422.19 0 .325.057.402.077v1.554c0 .307.21.5.48.5.268 0 .479-.193.479-.461V9.982c0-.288.172-.422.48-.422.19 0 .306.057.421.077v1.535c0 .269.096.442.422.442h.537V9.963c0-.288.153-.422.46-.422.192 0 .326.057.441.076v2.822Z"/></svg>
